packages/foundations/assets/icons/functional/images/maps/location_arrow_north_16_filled.svg

<svg width="16" height="16" viewBox="0 0 16 16" fill="none" xmlns="http://www.w3.org/2000/svg">
<g clip-path="url(#clip0_2213_4850)">
<path fill-rule="evenodd" clip-rule="evenodd" d="M8.0003 5.53674C8.41177 5.53815 8.59885 5.82308 8.67957 6.03295L11.6153 13.6734C11.7394 13.9963 11.5784 14.3587 11.2555 14.4829C11.0244 14.5718 10.7627 14.5162 10.5877 14.3412L8.0003 11.7535L5.4122 14.3416C5.16758 14.5862 4.77099 14.5862 4.52637 14.3416C4.35135 14.1666 4.29581 13.9049 4.38465 13.6739L7.326 6.03284C7.40666 5.82308 7.56253 5.53529 8.0003 5.53674ZM8.00004 1.47492C8.41682 1.47492 8.76032 1.78865 8.80727 2.19284L8.81274 2.28762V3.67074C8.81274 4.11958 8.44888 4.48344 8.00004 4.48344C7.58326 4.48344 7.23975 4.1697 7.19281 3.76552L7.18734 3.67074V2.28762C7.18734 1.83878 7.5512 1.47492 8.00004 1.47492Z" fill="#1A1C1F"/>
</g>
<defs>
<clipPath id="clip0_2213_4850">
<rect width="16" height="16" fill="white"/>
</clipPath>
</defs>
</svg>

<svg xmlns="http://www.w3.org/2000/svg" width="16" height="16" fill="none"><g clip-path="url(#a)"><path fill="#1A1C1F" fill-rule="evenodd" d="M8 5.537c.412.001.599.286.68.496l2.935 7.64a.626.626 0 0 1-1.027.668L8 11.754l-2.588 2.588a.626.626 0 0 1-1.027-.668l2.941-7.641c.08-.21.237-.498.674-.496m0-4.062c.417 0 .76.314.807.718l.006.095V3.67a.813.813 0 0 1-1.62.095l-.006-.095V2.288c0-.45.364-.813.813-.813" clip-rule="evenodd"/></g><defs><clipPath id="a"><path fill="#fff" d="M0 0h16v16H0z"/></clipPath></defs></svg>
